img/arrow.svg

<svg width="26" height="26" viewBox="0 0 26 26" fill="none" xmlns="http://www.w3.org/2000/svg">
<g clip-path="url(#clip0_175_209)">
<path fill-rule="evenodd" clip-rule="evenodd" d="M1.625 13C1.625 16.0168 2.82343 18.9101 4.95666 21.0433C7.08989 23.1766 9.98316 24.375 13 24.375C16.0168 24.375 18.9101 23.1766 21.0433 21.0433C23.1766 18.9101 24.375 16.0168 24.375 13C24.375 9.98316 23.1766 7.08989 21.0433 4.95666C18.9101 2.82343 16.0168 1.625 13 1.625C9.98316 1.625 7.08989 2.82343 4.95666 4.95666C2.82343 7.08989 1.625 9.98316 1.625 13ZM26 13C26 16.4478 24.6304 19.7544 22.1924 22.1924C19.7544 24.6304 16.4478 26 13 26C9.55219 26 6.24558 24.6304 3.80761 22.1924C1.36964 19.7544 0 16.4478 0 13C0 9.55219 1.36964 6.24558 3.80761 3.80761C6.24558 1.36964 9.55219 0 13 0C16.4478 0 19.7544 1.36964 22.1924 3.80761C24.6304 6.24558 26 9.55219 26 13ZM18.6875 12.1875C18.903 12.1875 19.1097 12.2731 19.262 12.4255C19.4144 12.5778 19.5 12.7845 19.5 13C19.5 13.2155 19.4144 13.4222 19.262 13.5745C19.1097 13.7269 18.903 13.8125 18.6875 13.8125H9.27387L12.7628 17.2997C12.8383 17.3753 12.8982 17.465 12.9391 17.5637C12.98 17.6624 13.001 17.7682 13.001 17.875C13.001 17.9818 12.98 18.0876 12.9391 18.1863C12.8982 18.285 12.8383 18.3747 12.7628 18.4503C12.6872 18.5258 12.5975 18.5857 12.4988 18.6266C12.4001 18.6675 12.2943 18.6885 12.1875 18.6885C12.0807 18.6885 11.9749 18.6675 11.8762 18.6266C11.7775 18.5857 11.6878 18.5258 11.6122 18.4503L6.73725 13.5753C6.66158 13.4998 6.60155 13.4101 6.56059 13.3114C6.51963 13.2127 6.49855 13.1069 6.49855 13C6.49855 12.8931 6.51963 12.7873 6.56059 12.6886C6.60155 12.5899 6.66158 12.5002 6.73725 12.4247L11.6122 7.54975C11.7648 7.39718 11.9717 7.31147 12.1875 7.31147C12.4033 7.31147 12.6102 7.39718 12.7628 7.54975C12.9153 7.70232 13.001 7.90924 13.001 8.125C13.001 8.34076 12.9153 8.54768 12.7628 8.70025L9.27387 12.1875H18.6875Z" fill="#110303"/>
</g>
<defs>
<clipPath id="clip0_175_209">
<rect width="26" height="26" fill="white"/>
</clipPath>
</defs>
</svg>

<?xml version="1.0" encoding="utf-8"?>
<!-- Generator: Adobe Illustrator 22.1.0, SVG Export Plug-In . SVG Version: 6.00 Build 0)  -->
<svg version="1.1" id="Слой_1" xmlns="http://www.w3.org/2000/svg" xmlns:xlink="http://www.w3.org/1999/xlink" x="0px" y="0px"
	 viewBox="0 0 26 26" style="enable-background:new 0 0 26 26;" xml:space="preserve">
<style type="text/css">
	.st0{clip-path:url(#SVGID_2_);}
	.st1{fill:#FFFFFF;}
</style>
<g>
	<defs>
		<rect id="SVGID_1_" y="0" width="26" height="26"/>
	</defs>
	<clipPath id="SVGID_2_">
		<use xlink:href="#SVGID_1_"  style="overflow:visible;"/>
	</clipPath>
	<g class="st0">
		<path class="st1" d="M1.6,13c0,3,1.2,5.9,3.3,8c2.1,2.1,5,3.3,8,3.3c3,0,5.9-1.2,8-3.3c2.1-2.1,3.3-5,3.3-8c0-3-1.2-5.9-3.3-8
			c-2.1-2.1-5-3.3-8-3.3c-3,0-5.9,1.2-8,3.3S1.6,10,1.6,13z M26,13c0,3.4-1.4,6.8-3.8,9.2S16.4,26,13,26c-3.4,0-6.8-1.4-9.2-3.8
			S0,16.4,0,13c0-3.4,1.4-6.8,3.8-9.2S9.6,0,13,0c3.4,0,6.8,1.4,9.2,3.8S26,9.6,26,13z M18.7,12.2c0.2,0,0.4,0.1,0.6,0.2
			c0.2,0.2,0.2,0.4,0.2,0.6s-0.1,0.4-0.2,0.6c-0.2,0.2-0.4,0.2-0.6,0.2H9.3l3.5,3.5c0.1,0.1,0.1,0.2,0.2,0.3c0,0.1,0.1,0.2,0.1,0.3
			s0,0.2-0.1,0.3c0,0.1-0.1,0.2-0.2,0.3c-0.1,0.1-0.2,0.1-0.3,0.2c-0.1,0-0.2,0.1-0.3,0.1s-0.2,0-0.3-0.1c-0.1,0-0.2-0.1-0.3-0.2
			l-4.9-4.9c-0.1-0.1-0.1-0.2-0.2-0.3c0-0.1-0.1-0.2-0.1-0.3s0-0.2,0.1-0.3c0-0.1,0.1-0.2,0.2-0.3l4.9-4.9c0.2-0.2,0.4-0.2,0.6-0.2
			s0.4,0.1,0.6,0.2C12.9,7.7,13,7.9,13,8.1s-0.1,0.4-0.2,0.6l-3.5,3.5H18.7z"/>
	</g>
</g>
</svg>
